!!!COM: Richard Strauss
!!!CNT: Deutscher
!!!TXO: Deutsche 
!!!OTL: Die Zeitlose
!!!OPS: Opus 10
!!!ONM: No. 7
!!!LYR: Hermann v. Gilm
!!!ENC: Brian Bice
!!!YOR: Lieder, Complete Edition, vol. 1
!!!ODT: 1885
!!NB: Vocal melody and text only encoded.
**kern	**silbe
*clefG2	*
*k[f#]	*
*M3/4	*
=1	=1
8r	.
{8dd	{Auf
8dd	frisch
8dd	ge-
8cc#	-ma2h-
8ee	-tem
=2	=2
4.dd	Wei-
8b	-de-
4g}	-platz}
=3	=3
8r	.
{8g	{steht
4b	ein-
8a	-sam
8g	die
=4	=4
4dd	Zeit-
4.a	-lo-
8b}	-se,}
=5	=5
8r	.
{8b	{den
8cc	Leib
8dd	von
8ff#	ei-
8dd	-ner
=6	=6
4.gg	Li-
8b	-li-
4a}	-e,}
=7	=7
8r	.
{8b	{die
8cc	Farb'
8dd	von
8ee	ei-
8ffn	-ner
=8	=8
2gg	Ro-
4b-}	-se:}
=9	=9
*k[b-e-]	*
4r	.
{4b-	{doch
8a	es
8a	ist
=10	=10
2.a-	Gift,
=11	=11
4a-	was
4.a-	aus
8g	dem
=12	=12
2cc}	Kelch,}
{4cc	{dem
=13	=13
2ee-	rei-
4b-	-nen,
=14	=14
2g	blinkt
4e-	so
=15	=15
2e-	ro2t-
4d}	-lich}
=17	=17
8r	.
{8g	{die
8.g	letz-
16g	-te
4dd	Blum',
=18	=18
8r	.
8a-	die
8.a-	letz-
16a-	-te
[4ff	Lieb'
=19	=19
8ff]}	|}
{8ee-	{sind
4.cc	bei-
8a-	-de
=20	=20
2f#	scho2n,
4r	.
=21	=21
4r	.
4r	.
4b-	doch
=22	=22
2c#	to2d-
4d}	-lich.}
*-	*-
